priv/static/images/links/analytics.svg

<svg
  width="35px"
  height="35px"
  viewBox="0 0 24 24"
  version="1.1"
  xmlns="http://www.w3.org/2000/svg"
  xmlns:xlink="http://www.w3.org/1999/xlink"
>
  <title>Analytics</title>
  <g
    id="Analytics"
    stroke="none"
    stroke-width="1"
    fill="none"
    fill-rule="evenodd"
    stroke-dasharray="0,0"
    stroke-linecap="round"
  >
    <path
      d="M4,18.9999905 L7.75407946,11.491832 C7.8680565,11.2638231 8.06482016,11.0879651 8.30413884,11.0001847 C9.11356935,10.7032911 9.60000359,10.8000012 9.76344156,11.2903152 L11.1190224,15.3570574 C11.1996482,15.5988744 11.3695623,15.8007859 11.5940587,15.9215227 C12.3533352,16.3298705 12.8485386,16.3029137 13.079669,15.8406525 L18,5.99999082 M13,6.46409237 L17.2774408,5.31795559 C17.4347269,5.27579637 17.5999292,5.27269863 17.7586883,5.30891799 C18.3183612,5.43660193 18.6397719,5.65560146 18.7229204,5.96591657 L19.9282036,10.4640923"
      id="Vector"
      stroke="#fff"
      stroke-width="2"
    ></path>
  </g>
</svg>

<svg xmlns="http://www.w3.org/2000/svg" width="35" height="35" viewBox="0 0 24 24"><path fill="none" fill-rule="evenodd" stroke="#fff" stroke-dasharray="0,0" stroke-linecap="round" stroke-width="2" d="m4 19 3.754-7.508a1 1 0 0 1 .55-.492q1.214-.445 1.46.29l1.355 4.067a1 1 0 0 0 .475.565q1.14.611 1.486-.081L18 6m-5 .464 4.277-1.146a1 1 0 0 1 .482-.01q.839.193.964.658l1.205 4.498"/></svg>
